**kern	**kern
*staff2	*staff1
*clefF4	*clefG2
*k[b-e-a-]	*k[b-e-a-]
*M3/4	*M3/4
*c:	*c:
=	=
*	*^
16cLL	4r	24gLL
.	.	24a-
16e-	.	.
.	.	24g
16c	.	24a-
.	.	24g
16e-JJ	.	.
.	.	24a-JJ
16cLL	(4ee-	24gLL
.	.	24a-
16e-	.	.
.	.	24g
16c	.	24a-
.	.	24g
16e-JJ	.	.
.	.	24a-JJ
16cLL	8cc)	24gLL
.	.	24a-
16e-	.	.
.	.	24g
16c	8r	24a-
.	.	24g
16e-JJ	.	.
.	.	24a-JJ
*	*v	*v
=74	=74
*	*^
16BLL	4r	24gLL
.	.	24a-
16d	.	.
.	.	24g
16B	.	24a-
.	.	24g
16dJJ	.	.
.	.	24a-JJ
16BLL	(4dd	24gLL
.	.	24a-
16d	.	.
.	.	24g
16B	.	24a-
.	.	24g
16dJJ	.	.
.	.	24a-JJ
16BLL	8gg)	24gLL
.	.	24a-
16d	.	.
.	.	24g
16B	8r	24a-
.	.	24g
16dJJ	.	.
.	.	24a-JJ
=75	=75	=75
16B-LL	4r	24gLL
.	.	24a
16d-	.	.
.	.	24g
16B-	.	24a
.	.	24g
16d-JJ	.	.
.	.	24aJJ
16B-LL	(4dd#	24gLL
.	.	24a
16d-	.	.
.	.	24g
16B-	.	24a
.	.	24g
16d-JJ	.	.
.	.	24aJJ
16B-LL	8ee)	24gLL
.	.	24a
16d-	.	.
.	.	24g
16B-	8r	24a
.	.	24g
16d-JJ	.	.
.	.	24aJJ
*	*v	*v
=76	=76
*	*^
16ALL	4r	24aLL
.	.	24b-
16c	.	.
.	.	24a
16A	.	24b-
.	.	24a
16cJJ	.	.
.	.	24b-JJ
16ALL	(4ee	24aLL
.	.	24b-
16c	.	.
.	.	24a
16A	.	24b-
.	.	24a
16cJJ	.	.
.	.	24b-JJ
16ALL	8ff)	24aLL
.	.	24b-
16c	.	.
.	.	24a
16A	8r	24b-
.	.	24a
16cJJ	.	.
.	.	24b-JJ
=77	=77	=77
16cLL	4r	24aLL
.	.	24b-
16e-	.	.
.	.	24a
16c	.	24b-
.	.	24a
16e-JJ	.	.
.	.	24b-JJ
16cLL	(4ee#	24aLL
.	.	24b-
16e-	.	.
.	.	24a
16c	.	24b-
.	.	24a
16e-JJ	.	.
.	.	24b-JJ
16cLL	4ff#)	24aLL
.	.	24b-
16e-	.	.
.	.	24a
16c	.	24b-
.	.	24a
16e-JJ	.	.
.	.	24b-JJ
*	*v	*v
=78	=78
*	*^
16dLL	(4gg	24bLL
.	.	24cc
16f	.	.
.	.	24b
16d	.	24cc
.	.	24b
16fJJ	.	.
.	.	24ccJJ
16dLL	([2aa-)	24bLL
.	.	24cc
16f	.	.
.	.	24b
16d	.	24cc
.	.	24b
16fJJ	.	.
.	.	24ccJJ
16dLL	.	24bLL
.	.	24cc
16f	.	.
.	.	24b
16d	.	24cc
.	.	24b
16fJJ	.	.
.	.	24ccJJ
=79	=79	=79
16GLL	4aa-]	24bLL
.	.	24cc
16f	.	.
.	.	24b
16G	.	24cc
.	.	24b
16fJJ	.	.
.	.	24ccJJ
16GLL	4ff	24bLL
.	.	24cc
16f	.	.
.	.	24b
16G	.	24cc
.	.	24b
16fJJ	.	.
.	.	24ccJJ
16GLL	4gg)	4bn
16d	.	.
16G	.	.
16dJJ	.	.
=80	=80	=80
16cLL	8gg	4cc
16e-	.	.
16c	8r	.
16e-JJ	.	.
16GLL	2r	4b
16d	.	.
16G	.	.
16dJJ	.	.
8C 8c	.	8cc
8r	.	8r
*	*v	*v
=81||	=81||
*-	*-
